X: 182
M: 6/8
L: 1/8
K: A
V: 1
|: A3 cBA | cBA ecA | A3 cBA | cBA GFE |\
|: A3 ecA | fga ecA | Bcd FGA | BcA GFE |\
V: 2 clef=bass middle=d
|: [a3A3] [a3A3] | [a3A3] [a3A3] | [a3A3] [a3A3] | [a3A3] [e3E3] |\
[a3A3] [a3A3] | [d3D3] [d3D3] | [e3E3] [e3E3] | A3 [e3E3] :|
|: [a3A3] [a3A3] | d3 A3 | e3 d2^d | e3 E3 |\


